public/images/cloud.svg

<svg width="212" height="105" viewBox="0 0 212 105" fill="none" xmlns="http://www.w3.org/2000/svg">
<mask id="path-1-inside-1_22057_2116" fill="white">
<path fill-rule="evenodd" clip-rule="evenodd" d="M29.3528 83.2654C27.4817 83.745 25.5206 84 23.5 84C10.5213 84 0 73.4787 0 60.5C0 47.5213 10.5213 37 23.5 37C29.4401 37 34.8655 39.204 39.003 42.8387C39.001 42.7261 39 42.6132 39 42.5C39 32.2827 47.2827 24 57.5 24C63.6383 24 69.0784 26.9895 72.4437 31.592C75.6948 13.7545 96.4191 0 121.5 0C148.112 0 169.82 15.4856 170.953 34.9031C174.739 33.044 178.998 32 183.5 32C199.24 32 212 44.7599 212 60.5C212 76.2401 199.24 89 183.5 89C179.502 89 175.696 88.1766 172.242 86.6902C159.678 97.5291 133.17 105 102.5 105C68.6955 105 39.946 95.9238 29.3528 83.2654Z"/>
</mask>
<path fill-rule="evenodd" clip-rule="evenodd" d="M29.3528 83.2654C27.4817 83.745 25.5206 84 23.5 84C10.5213 84 0 73.4787 0 60.5C0 47.5213 10.5213 37 23.5 37C29.4401 37 34.8655 39.204 39.003 42.8387C39.001 42.7261 39 42.6132 39 42.5C39 32.2827 47.2827 24 57.5 24C63.6383 24 69.0784 26.9895 72.4437 31.592C75.6948 13.7545 96.4191 0 121.5 0C148.112 0 169.82 15.4856 170.953 34.9031C174.739 33.044 178.998 32 183.5 32C199.24 32 212 44.7599 212 60.5C212 76.2401 199.24 89 183.5 89C179.502 89 175.696 88.1766 172.242 86.6902C159.678 97.5291 133.17 105 102.5 105C68.6955 105 39.946 95.9238 29.3528 83.2654Z" fill="white"/>
<path d="M29.3528 83.2654L30.1197 82.6236L29.7151 82.1401L29.1045 82.2967L29.3528 83.2654ZM39.003 42.8387L38.343 43.59L40.0435 45.0838L40.0029 42.8208L39.003 42.8387ZM72.4437 31.592L71.6364 32.1823L73.0101 34.061L73.4275 31.7713L72.4437 31.592ZM170.953 34.9031L169.955 34.9614L170.043 36.4644L171.394 35.8007L170.953 34.9031ZM172.242 86.6902L172.637 85.7717L172.063 85.5243L171.589 85.933L172.242 86.6902ZM29.1045 82.2967C27.3139 82.7557 25.4362 83 23.5 83V85C25.6051 85 27.6496 84.7343 29.6011 84.234L29.1045 82.2967ZM23.5 83C11.0736 83 1 72.9264 1 60.5H-1C-1 74.031 9.96902 85 23.5 85V83ZM1 60.5C1 48.0736 11.0736 38 23.5 38V36C9.96902 36 -1 46.969 -1 60.5H1ZM23.5 38C29.1881 38 34.381 40.1094 38.343 43.59L39.663 42.0875C35.35 38.2985 29.6922 36 23.5 36V38ZM40.0029 42.8208C40.001 42.7141 40 42.6072 40 42.5H38C38 42.6192 38.0011 42.7381 38.0032 42.8567L40.0029 42.8208ZM40 42.5C40 32.835 47.835 25 57.5 25V23C46.7304 23 38 31.7304 38 42.5H40ZM57.5 25C63.3058 25 68.4514 27.8262 71.6364 32.1823L73.2509 31.0018C69.7054 26.1528 63.9708 23 57.5 23V25ZM73.4275 31.7713C76.5577 14.5974 96.6813 1 121.5 1V-1C96.1568 -1 74.832 12.9116 71.4599 31.4127L73.4275 31.7713ZM121.5 1C134.619 1 146.493 4.81821 155.203 10.9861C163.916 17.1554 169.41 25.628 169.955 34.9614L171.952 34.8448C171.363 24.7608 165.437 15.7817 156.359 9.35388C147.28 2.9246 134.993 -1 121.5 -1V1ZM171.394 35.8007C175.046 34.0075 179.154 33 183.5 33V31C178.842 31 174.433 32.0805 170.513 34.0055L171.394 35.8007ZM183.5 33C198.688 33 211 45.3122 211 60.5H213C213 44.2076 199.792 31 183.5 31V33ZM211 60.5C211 75.6878 198.688 88 183.5 88V90C199.792 90 213 76.7924 213 60.5H211ZM183.5 88C179.64 88 175.968 87.2053 172.637 85.7717L171.847 87.6087C175.423 89.1479 179.363 90 183.5 90V88ZM171.589 85.933C165.465 91.2162 155.857 95.7417 143.902 98.9437C131.964 102.141 117.757 104 102.5 104V106C117.912 106 132.295 104.123 144.42 100.876C156.528 97.6325 166.456 93.0031 172.895 87.4474L171.589 85.933ZM102.5 104C85.6819 104 70.1424 101.742 57.5116 97.9224C44.8492 94.0936 35.233 88.7337 30.1197 82.6236L28.5859 83.9071C34.0658 90.4554 44.121 95.9628 56.9327 99.8368C69.7761 103.72 85.5135 106 102.5 106V104Z" fill="black" mask="url(#path-1-inside-1_22057_2116)"/>
</svg>

<svg width="212" height="105" viewBox="0 0 212 105" fill="none" xmlns="http://www.w3.org/2000/svg"><mask id="a" fill="#fff"><path fill-rule="evenodd" clip-rule="evenodd" d="M29.353 83.265c-1.871.48-3.832.735-5.853.735C10.521 84 0 73.479 0 60.5S10.521 37 23.5 37a23.41 23.41 0 0 1 15.503 5.839A19.072 19.072 0 0 1 39 42.5C39 32.283 47.283 24 57.5 24c6.138 0 11.578 2.99 14.944 7.592C75.694 13.755 96.419 0 121.5 0c26.612 0 48.32 15.486 49.453 34.903A28.388 28.388 0 0 1 183.5 32c15.74 0 28.5 12.76 28.5 28.5S199.24 89 183.5 89c-3.998 0-7.804-.823-11.258-2.31C159.678 97.53 133.17 105 102.5 105c-33.805 0-62.554-9.076-73.147-21.735z"/></mask><path fill-rule="evenodd" clip-rule="evenodd" d="M29.353 83.265c-1.871.48-3.832.735-5.853.735C10.521 84 0 73.479 0 60.5S10.521 37 23.5 37a23.41 23.41 0 0 1 15.503 5.839A19.072 19.072 0 0 1 39 42.5C39 32.283 47.283 24 57.5 24c6.138 0 11.578 2.99 14.944 7.592C75.694 13.755 96.419 0 121.5 0c26.612 0 48.32 15.486 49.453 34.903A28.388 28.388 0 0 1 183.5 32c15.74 0 28.5 12.76 28.5 28.5S199.24 89 183.5 89c-3.998 0-7.804-.823-11.258-2.31C159.678 97.53 133.17 105 102.5 105c-33.805 0-62.554-9.076-73.147-21.735z" fill="#fff"/><path d="m29.353 83.265.767-.641-.405-.484-.61.157.248.968zm9.65-40.426-.66.751 1.7 1.494-.04-2.263-1 .018zm33.44-11.247-.807.59 1.374 1.879.417-2.29-.983-.179zm98.51 3.311-.998.058.088 1.503 1.351-.663-.441-.898zm1.289 51.787.395-.918-.574-.248-.474.409.653.757zM29.105 82.297A22.551 22.551 0 0 1 23.5 83v2c2.105 0 4.15-.266 6.101-.766l-.496-1.937zM23.5 83C11.074 83 1 72.926 1 60.5h-2C-1 74.031 9.969 85 23.5 85v-2zM1 60.5C1 48.074 11.074 38 23.5 38v-2C9.969 36-1 46.969-1 60.5h2zM23.5 38a22.41 22.41 0 0 1 14.843 5.59l1.32-1.503A24.41 24.41 0 0 0 23.5 36v2zm16.503 4.82A18.015 18.015 0 0 1 40 42.5h-2c0 .12.001.238.003.357l2-.036zM40 42.5C40 32.835 47.835 25 57.5 25v-2C46.73 23 38 31.73 38 42.5h2zM57.5 25c5.806 0 10.951 2.826 14.136 7.182l1.615-1.18C69.705 26.152 63.97 23 57.5 23v2zm15.927 6.771C76.557 14.597 96.681 1 121.5 1v-2C96.157-1 74.832 12.912 71.46 31.413l1.968.358zM121.5 1c13.119 0 24.993 3.818 33.703 9.986 8.713 6.17 14.207 14.642 14.752 23.975l1.997-.116c-.589-10.084-6.515-19.063-15.593-25.491C147.28 2.924 134.993-1 121.5-1v2zm49.894 34.8A27.388 27.388 0 0 1 183.5 33v-2c-4.658 0-9.067 1.08-12.987 3.005l.881 1.796zM183.5 33c15.188 0 27.5 12.312 27.5 27.5h2c0-16.292-13.208-29.5-29.5-29.5v2zM211 60.5c0 15.188-12.312 27.5-27.5 27.5v2c16.292 0 29.5-13.208 29.5-29.5h-2zM183.5 88a27.41 27.41 0 0 1-10.863-2.228l-.79 1.837A29.405 29.405 0 0 0 183.5 90v-2zm-11.911-2.067c-6.124 5.283-15.732 9.809-27.687 13.01C131.964 102.142 117.757 104 102.5 104v2c15.412 0 29.795-1.877 41.92-5.124 12.108-3.244 22.036-7.873 28.475-13.429l-1.306-1.514zM102.5 104c-16.818 0-32.358-2.258-44.988-6.078-12.663-3.828-22.279-9.188-27.392-15.298l-1.534 1.283c5.48 6.548 15.535 12.056 28.347 15.93C69.776 103.72 85.513 106 102.5 106v-2z" fill="#000" mask="url(#a)"/></svg>
